X:2306
T:Car-y-Phoosee 
C:Traditional
O:Isle of Man
Z:Clague collection
B:Kiaull Vannin #225
N:See also KV 225, 283,388. 
M:6/8 
L:1/8
K:G 
GBB B2A|GBB B2A|GBB Bcd|cAA A2G|FAA A2G|FAA ABc|BGG G2 B/c/|
dcB cBA|BGG G2B/c/|dcB Bcd|eAA A2B/c/|dcB cBA|BAG A2 D|DDD EDC|B,AA A3|
FAA A2G|FAA A2G|FAA ABc|BGG G3|FAA A2G|FAA A2G|FAA ABc|BGG G2B/c/|
dcB cBA|BGG G2B/c/|dcB Bcd|eAA A2B/c/|dcB cBA|BAG A2D|DDD EDC|B,GG G3||

